X:1
T:Title
%%score [ ( 1 2 ) ( 3 4 ) ] { ( 5 6 ) | 7 }
L:1/8
Q:1/4=120
M:4/4
K:Bb
V:1 treble nm="Midi_74"
V:2 treble 
V:3 bass nm="Midi_74"
V:4 bass 
V:5 treble nm="Org."
V:6 treble 
V:7 bass 
V:1
 B8 | d4 c4 | e8 || d8 | g4 f4 | e4 d4 | c8 || d8 | c4 B4 | e8 || A8 | B4 c4 | %12
"^John Camidge\n(1790-1859)" F4 (G2 A2) | B8 |] %14
V:2
 D8 | B4 A4 | G8 || G8 | G4 B4 | A4 B4 | A8 || B8 | A4 G4 | G8 || E8 | D4 G4 | F4 E4 | D8 |] %14
V:3
 F8 | F4 F4 | E8 || B,8 | B,4 B,4 | F4 F4 | F8 || F8 | E4 D4 | E8 || C8 | B,4 (B,2 C2) | D4 C4 | %13
 B,8 |] %14
V:4
 B,,8 | B,4 F,4 | C8 || G,8 | E,4 D,4 | C,4 B,,4 | F,8 || B,8 | ^F,4 G,4 | C,8 || =F,8 | B,,4 E,4 | %12
 F,4 F,,4 | B,,8 |] %14
V:5
 [FB]8 | d4 c4 | [Ece]8 || [Bd]8 | g4 f4 | e4 d4 | c8 || d8 | c4 B4 | e8 || A8 | B4 c4 | F4 G2 A2 | %13
 B8 |] %14
V:6
 D8 | [FB]4 [FA]4 | G8 || G8 | [GB]4 [FB]4 | [FA]4 [FB]4 | [FA]8 || [FB]8 | [EA]4 [DG]4 | [EGB]8 || %10
 [CEF]8 | D4 [EGB]4 | D4 [CE]4 | [B,D]8 |] %14
V:7
 [B,,B,]8 | [B,,B,]4 [F,,F,]4 | [C,C]8 || [G,,G,]8 | [E,,E,]4 [D,,D,]4 | [C,,C,]4 [B,,,B,,]4 | %6
 [F,,F,]8 || [B,,B,]8 | [^F,,^F,]4 [G,,G,]4 | [C,,C,]8 || [=F,,=F,]8 | [B,,,B,,]4 [E,,E,]4 | %12
 [F,,F,]4 [F,,F,]4 | [B,,F,]8 |] %14

